X: 13919
T: Foxhunter, The
R: slip jig
M: 9/8
K: Dmixolydian
|d/c/|:B2B BGB c2A|B2B BGB A2G|B2B BGB c2A|d2G GAB A2G:|
|:A2e edc Bcd|e2A ABc BAG|G2g gfe dBd|g2G GAB A2G:|

